X: 24
T: THE SPACEMAN
C: Doreen Buckoke, 1961
S: "Community Dances Manual 6", EFDSS, Jack Hamilton ed., 1981 p.9
R: jig
Z: 2010 John Chambers <jc:trillian.mit.edu>
M: 6/8
L: 1/8
K: G
"A1"[|] D |\
"G"d2^d d2B | "D7"c2B c2A | "G"B2^A B2G | "D"A2F D2D |\
"C"E2G c2e | "G"d2B "C"G2c | "G"B2G "D7"A2F | "G"G3 G2 ||
"A2"[|] D |\
"G"dBG DGB | "G"dBG d3 | "D7"A2^G A2G | "D7"A2F D3 |\
"G"dBG DGB | d2B d3 | "C"E2A "D"D2F | "G"G3 ||
"B1"[|] "G7"G3 |\
"C"ecG EGc | "C"ecG e3 | "G"dBG DGB | "G"dBG d3 |\
"A7"^cAG EEG | "A7"^c2A c3 | "D"d3 "A7"^c3 | "D7"=c3 A3 ||
"B2"[|]\
"G"dBG DGB | "G"dBG d3 | "D7"A2^G A2G | "D7"A2F D3 |\
"G"dBG DGB | "G"dBG d3 | "Am"c2B "D"A2B | "G"G3- G2 |]

%%sep 2 1 500
%%sep 1 1 500

